svgs/regular/copy.svg

<svg xmlns="http://www.w3.org/2000/svg" viewBox="0 0 448 512"><!--! Font Awesome Free 6.6.0 by @fontawesome - https://fontawesome.com License - https://fontawesome.com/license/free (Icons: CC BY 4.0, Fonts: SIL OFL 1.1, Code: MIT License) Copyright 2024 Fonticons, Inc. --><path d="M384 336l-192 0c-8.8 0-16-7.2-16-16l0-256c0-8.8 7.2-16 16-16l140.1 0L400 115.9 400 320c0 8.8-7.2 16-16 16zM192 384l192 0c35.3 0 64-28.7 64-64l0-204.1c0-12.7-5.1-24.9-14.1-33.9L366.1 14.1c-9-9-21.2-14.1-33.9-14.1L192 0c-35.3 0-64 28.7-64 64l0 256c0 35.3 28.7 64 64 64zM64 128c-35.3 0-64 28.7-64 64L0 448c0 35.3 28.7 64 64 64l192 0c35.3 0 64-28.7 64-64l0-32-48 0 0 32c0 8.8-7.2 16-16 16L64 464c-8.8 0-16-7.2-16-16l0-256c0-8.8 7.2-16 16-16l32 0 0-48-32 0z"/></svg>

<svg xmlns="http://www.w3.org/2000/svg" viewBox="0 0 448 512"><!--! Font Awesome Free 6.5.2 by @fontawesome - https://fontawesome.com License - https://fontawesome.com/license/free (Icons: CC BY 4.0, Fonts: SIL OFL 1.1, Code: MIT License) Copyright 2024 Fonticons, Inc. --><path d="M384 336H192c-8.8 0-16-7.2-16-16V64c0-8.8 7.2-16 16-16l140.1 0L400 115.9V320c0 8.8-7.2 16-16 16zM192 384H384c35.3 0 64-28.7 64-64V115.9c0-12.7-5.1-24.9-14.1-33.9L366.1 14.1c-9-9-21.2-14.1-33.9-14.1H192c-35.3 0-64 28.7-64 64V320c0 35.3 28.7 64 64 64zM64 128c-35.3 0-64 28.7-64 64V448c0 35.3 28.7 64 64 64H256c35.3 0 64-28.7 64-64V416H272v32c0 8.8-7.2 16-16 16H64c-8.8 0-16-7.2-16-16V192c0-8.8 7.2-16 16-16H96V128H64z"/></svg>
